svg/justvector/brightkite.svg

<svg xmlns="http://www.w3.org/2000/svg" viewBox="0 0 100 100" enable-background="new 0 0 100 100"><path d="m61.895 44.32c0 1 .527 5.174-1.311 8.385-1.84 3.209-7.584 1.297-7.584 1.297v-16.359c0 0 1.06-2 5.408-1.502 4.352.499 3.487 7.178 3.487 8.179m30.1-39.32v45.508 6.18 4.965c0 1.998-1.361 4.166-3.888 5.334-5.771 2.67-80.11 28.01-80.11 28.01l16.508-84.69c0 0 1.342-5.309 8.479-5.309s59.01 0 59.01 0m-21.656 28.3c-3.682-10.02-16.532-5.509-16.701-2.171l-.643-.167v-16.694l-11 1.669v42.23c0 0 6.478 6.01 17.01 4.34 10.539-1.669 12.139-10.517 12.139-10.517s2.869-8.679-.808-18.695"/></svg>

<?xml version="1.0" encoding="iso-8859-1"?>
<!-- Generator: Adobe Illustrator 15.0.0, SVG Export Plug-In . SVG Version: 6.00 Build 0)  -->
<!DOCTYPE svg PUBLIC "-//W3C//DTD SVG 1.1//EN" "http://www.w3.org/Graphics/SVG/1.1/DTD/svg11.dtd">
<svg version="1.1" id="Layer_1" xmlns="http://www.w3.org/2000/svg" xmlns:xlink="http://www.w3.org/1999/xlink" x="0px" y="0px"
	 width="100px" height="100px" viewBox="0 0 100 100" style="enable-background:new 0 0 100 100;" xml:space="preserve">
<path id="Brightkite" d="M61.895,44.322c0,1.001,0.527,5.174-1.311,8.385C58.744,55.916,53,54.004,53,54.004V37.645
	c0,0,1.06-2.003,5.408-1.502C62.76,36.642,61.895,43.321,61.895,44.322z M92,5v45.508v6.18v4.965c0,1.998-1.361,4.166-3.888,5.334
	C82.341,69.657,8,95,8,95l16.508-84.691c0,0,1.342-5.309,8.479-5.309S92,5,92,5z M70.344,33.305
	c-3.682-10.018-16.532-5.509-16.701-2.171L53,30.967V14.273l-11,1.669v42.235c0,0,6.478,6.01,17.013,4.34
	C69.552,60.848,71.152,52,71.152,52S74.021,43.321,70.344,33.305z"/>
</svg>
